works/bp/images/common/svg/call_text.svg

<?xml version="1.0" encoding="UTF-8" standalone="no"?>
<svg
   width="1710"
   height="115"
   viewBox="0 0 1710 115"
   fill="none"
   version="1.1"
   id="svg4"
   sodipodi:docname="call_text.svg"
   inkscape:version="1.1 (c68e22c387, 2021-05-23)"
   xmlns:inkscape="http://www.inkscape.org/namespaces/inkscape"
   xmlns:sodipodi="http://sodipodi.sourceforge.net/DTD/sodipodi-0.dtd"
   xmlns="http://www.w3.org/2000/svg"
   xmlns:svg="http://www.w3.org/2000/svg">
  <defs
     id="defs8" />
  <sodipodi:namedview
     id="namedview6"
     pagecolor="#ffffff"
     bordercolor="#666666"
     borderopacity="1.0"
     inkscape:pageshadow="2"
     inkscape:pageopacity="0.0"
     inkscape:pagecheckerboard="0"
     showgrid="false"
     inkscape:zoom="0.78014616"
     inkscape:cx="821.64091"
     inkscape:cy="54.476971"
     inkscape:window-width="2560"
     inkscape:window-height="1411"
     inkscape:window-x="7191"
     inkscape:window-y="-9"
     inkscape:window-maximized="1"
     inkscape:current-layer="svg4" />
  <path
     d="M 9.958,25.942 2.216,17.41 C 15.0667,6.13933 29.6553,0.503998 45.982,0.503998 c 11.7973,0 21.33,2.738662 28.598,8.216002 7.268,5.372 10.902,12.4293 10.902,21.172 v 0.316 c 0,6.4253 -1.896,11.9553 -5.688,16.59 -3.792,4.5293 -9.322,7.8473 -16.59,9.954 7.584,1.58 13.588,4.6873 18.012,9.322 4.5293,4.5293 6.794,10.1647 6.794,16.906 v 0.158 c 0,9.164 -3.95,16.748 -11.85,22.752 -7.9,6.004 -18.486,9.006 -31.758,9.006 -16.9587,0 -31.5473,-5.214 -43.766,-15.642 l 7.426,-9.006 c 11.1653,8.9533 23.3313,13.43 36.498,13.43 9.0587,0 16.3793,-1.949 21.962,-5.846 5.688,-4.0027 8.532,-9.006 8.532,-15.01 v -0.316 c 0,-6.4253 -2.7387,-11.3233 -8.216,-14.694 C 61.3607,64.4413 53.6187,62.756 43.612,62.756 H 24.652 V 51.854 H 43.77 c 8.532,0 15.4313,-1.7907 20.698,-5.372 5.372,-3.5813 8.058,-8.6373 8.058,-15.168 v -0.158 c 0,-5.7933 -2.4753,-10.4807 -7.426,-14.062 -4.8453,-3.5813 -11.3233,-5.372 -19.434,-5.372 -12.8507,0 -24.7533,4.74 -35.708,14.22 z M 102.615,113 153.017,1.60999 h 11.692 L 215.111,113 h -13.43 L 188.725,83.77 H 128.527 L 115.413,113 Z m 30.81,-40.448 h 50.402 L 158.705,16.146 Z M 236.921,113 V 2.39999 h 12.482 V 50.906 h 18.012 L 313.551,2.39999 h 16.274 L 278.001,55.646 332.195,113 h -16.59 L 267.889,62.124 H 249.403 V 113 Z m 101.46,0 50.402,-111.39001 h 11.692 L 450.877,113 h -13.43 L 424.491,83.77 H 364.293 L 351.179,113 Z m 30.81,-40.448 h 50.402 L 394.471,16.146 Z m 103.658,-46.61 -7.742,-8.532 c 12.85,-11.27067 27.439,-16.906002 43.766,-16.906002 11.797,0 21.33,2.738662 28.598,8.216002 7.268,5.372 10.902,12.4293 10.902,21.172 v 0.316 c 0,6.4253 -1.896,11.9553 -5.688,16.59 -3.792,4.5293 -9.322,7.8473 -16.59,9.954 7.584,1.58 13.588,4.6873 18.012,9.322 4.529,4.5293 6.794,10.1647 6.794,16.906 v 0.158 c 0,9.164 -3.95,16.748 -11.85,22.752 -7.9,6.004 -18.486,9.006 -31.758,9.006 -16.959,0 -31.548,-5.214 -43.766,-15.642 l 7.426,-9.006 c 11.165,8.9533 23.331,13.43 36.498,13.43 9.058,0 16.379,-1.949 21.962,-5.846 5.688,-4.0027 8.532,-9.006 8.532,-15.01 v -0.316 c 0,-6.4253 -2.739,-11.3233 -8.216,-14.694 -5.478,-3.3707 -13.22,-5.056 -23.226,-5.056 h -18.96 V 51.854 h 19.118 c 8.532,0 15.431,-1.7907 20.698,-5.372 5.372,-3.5813 8.058,-8.6373 8.058,-15.168 v -0.158 c 0,-5.7933 -2.476,-10.4807 -7.426,-14.062 -4.846,-3.5813 -11.324,-5.372 -19.434,-5.372 -12.851,0 -24.754,4.74 -35.708,14.22 z M 565.506,113 615.908,1.60999 H 627.6 L 678.002,113 h -13.43 L 651.616,83.77 H 591.418 L 578.304,113 Z m 30.81,-40.448 h 50.402 L 621.596,16.146 Z M 714.99,113 V 13.934 H 677.702 V 2.39999 H 764.76 V 13.934 H 727.472 V 113 Z m 72.463,0 V 2.39999 h 12.482 V 42.374 h 28.598 c 12.64,0 22.752,3.0547 30.336,9.164 7.584,6.004 11.376,14.4307 11.376,25.28 v 0.316 c 0,11.2707 -4.056,20.066 -12.166,26.386 -8.111,6.32 -18.539,9.48 -31.284,9.48 z m 12.482,-11.534 h 27.334 c 9.058,0 16.379,-2.1593 21.962,-6.478 5.582,-4.3187 8.374,-10.112 8.374,-17.38 v -0.316 c 0,-7.4787 -2.686,-13.272 -8.058,-17.38 -5.267,-4.108 -12.43,-6.162 -21.488,-6.162 H 799.935 Z M 940.831,25.942 933.089,17.41 C 945.94,6.13933 960.528,0.503998 976.855,0.503998 c 11.797,0 21.33,2.738662 28.595,8.216002 7.27,5.372 10.91,12.4293 10.91,21.172 v 0.316 c 0,6.4253 -1.9,11.9553 -5.69,16.59 -3.79,4.5293 -9.32,7.8473 -16.593,9.954 7.583,1.58 13.593,4.6873 18.013,9.322 4.53,4.5293 6.79,10.1647 6.79,16.906 v 0.158 c 0,9.164 -3.95,16.748 -11.85,22.752 -7.897,6.004 -18.483,9.006 -31.755,9.006 -16.959,0 -31.547,-5.214 -43.766,-15.642 l 7.426,-9.006 c 11.165,8.9533 23.331,13.43 36.498,13.43 9.059,0 16.379,-1.949 21.962,-5.846 5.685,-4.0027 8.535,-9.006 8.535,-15.01 v -0.316 c 0,-6.4253 -2.74,-11.3233 -8.219,-14.694 -5.477,-3.3707 -13.219,-5.056 -23.226,-5.056 h -18.96 V 51.854 h 19.118 c 8.532,0 15.431,-1.7907 20.698,-5.372 5.369,-3.5813 8.059,-8.6373 8.059,-15.168 v -0.158 c 0,-5.7933 -2.48,-10.4807 -7.427,-14.062 -4.845,-3.5813 -11.323,-5.372 -19.434,-5.372 -12.851,0 -24.753,4.74 -35.708,14.22 z M 1044.67,113 V 2.39999 h 47.08 c 12.53,0 22.17,3.26534 28.91,9.79601 4.74,4.8453 7.11,10.744 7.11,17.696 v 0.316 c 0,12.008 -5.84,20.54 -17.53,25.596 15.8,4.5293 23.7,13.43 23.7,26.702 v 0.316 c 0,9.3747 -3.64,16.748 -10.91,22.12 -7.26,5.372 -17.01,8.058 -29.23,8.058 z m 70.46,-81.054 V 31.63 c 0,-5.5827 -2.16,-9.954 -6.47,-13.114 -4.22,-3.2653 -10.22,-4.898 -18.02,-4.898 h -33.65 v 38.078 h 32.71 c 7.79,0 13.95,-1.6853 18.48,-5.056 4.64,-3.3707 6.95,-8.2687 6.95,-14.694 z m 6.17,50.086 v -0.316 c 0,-6.1093 -2.53,-10.7967 -7.59,-14.062 -4.95,-3.2653 -12.22,-4.898 -21.8,-4.898 h -34.92 v 39.026 h 37.13 c 8.53,0 15.17,-1.738 19.91,-5.214 4.84,-3.476 7.27,-8.3213 7.27,-14.536 z m 128.73,16.116 c -10.64,11.165 -24.17,16.748 -40.61,16.748 -16.43,0 -29.91,-5.53 -40.44,-16.59 -10.54,-11.1653 -15.8,-24.5953 -15.8,-40.29 V 57.7 c 0,-15.6947 5.31,-29.1247 15.95,-40.29 10.64,-11.27067 24.18,-16.906002 40.61,-16.906002 16.43,0 29.91,5.582672 40.45,16.748002 10.53,11.06 15.8,24.4373 15.8,40.132 V 57.7 c 0,15.6947 -5.32,29.1773 -15.96,40.448 z m -71.57,-8.058 c 8.32,8.848 18.74,13.272 31.28,13.272 12.53,0 22.86,-4.3713 30.97,-13.114 8.21,-8.7427 12.32,-19.4867 12.32,-32.232 V 57.7 c 0,-12.7453 -4.16,-23.542 -12.48,-32.39 -8.22,-8.848 -18.59,-13.272 -31.13,-13.272 -12.53,0 -22.91,4.3713 -31.12,13.114 -8.11,8.7427 -12.17,19.4867 -12.17,32.232 V 57.7 c 0,12.7453 4.11,23.542 12.33,32.39 z M 1292.31,113 V 2.39999 h 12.48 V 51.538 h 63.84 V 2.39999 h 12.48 V 113 h -12.48 V 63.23 h -63.84 V 113 Z m 212,-14.852 c -10.64,11.165 -24.17,16.748 -40.61,16.748 -16.43,0 -29.91,-5.53 -40.44,-16.59 -10.54,-11.1653 -15.8,-24.5953 -15.8,-40.29 V 57.7 c 0,-15.6947 5.32,-29.1247 15.95,-40.29 10.64,-11.27067 24.18,-16.906002 40.61,-16.906002 16.43,0 29.92,5.582672 40.45,16.748002 10.53,11.06 15.8,24.4373 15.8,40.132 V 57.7 c 0,15.6947 -5.32,29.1773 -15.96,40.448 z m -71.57,-8.058 c 8.32,8.848 18.75,13.272 31.28,13.272 12.54,0 22.86,-4.3713 30.97,-13.114 8.21,-8.7427 12.32,-19.4867 12.32,-32.232 V 57.7 c 0,-12.7453 -4.16,-23.542 -12.48,-32.39 -8.22,-8.848 -18.59,-13.272 -31.13,-13.272 -12.53,0 -22.91,4.3713 -31.12,13.114 -8.11,8.7427 -12.17,19.4867 -12.17,32.232 V 57.7 c 0,12.7453 4.11,23.542 12.33,32.39 z M 1546.59,113 V 2.39999 h 12.49 V 50.906 h 18.01 l 46.13,-48.50601 h 16.28 L 1587.67,55.646 1641.87,113 h -16.59 l -47.72,-50.876 h -18.48 V 113 Z"
     fill="#e4e4e4"
     id="path2" />
</svg>

<svg width="1642" height="115" viewBox="0 0 1642 115" fill="none" xmlns="http://www.w3.org/2000/svg">
<path d="M9.958 25.942L2.216 17.41C15.0667 6.13933 29.6553 0.503998 45.982 0.503998C57.7793 0.503998 67.312 3.24266 74.58 8.72C81.848 14.092 85.482 21.1493 85.482 29.892V30.208C85.482 36.6333 83.586 42.1633 79.794 46.798C76.002 51.3273 70.472 54.6453 63.204 56.752C70.788 58.332 76.792 61.4393 81.216 66.074C85.7453 70.6033 88.01 76.2387 88.01 82.98V83.138C88.01 92.302 84.06 99.886 76.16 105.89C68.26 111.894 57.674 114.896 44.402 114.896C27.4433 114.896 12.8547 109.682 0.636 99.254L8.062 90.248C19.2273 99.2013 31.3933 103.678 44.56 103.678C53.6187 103.678 60.9393 101.729 66.522 97.832C72.21 93.8293 75.054 88.826 75.054 82.822V82.506C75.054 76.0807 72.3153 71.1827 66.838 67.812C61.3607 64.4413 53.6187 62.756 43.612 62.756H24.652V51.854H43.77C52.302 51.854 59.2013 50.0633 64.468 46.482C69.84 42.9007 72.526 37.8447 72.526 31.314V31.156C72.526 25.3627 70.0507 20.6753 65.1 17.094C60.2547 13.5127 53.7767 11.722 45.666 11.722C32.8153 11.722 20.9127 16.462 9.958 25.942ZM102.615 113L153.017 1.60999H164.709L215.111 113H201.681L188.725 83.77H128.527L115.413 113H102.615ZM133.425 72.552H183.827L158.705 16.146L133.425 72.552ZM236.921 113V2.39999H249.403V50.906H267.415L313.551 2.39999H329.825L278.001 55.646L332.195 113H315.605L267.889 62.124H249.403V113H236.921ZM338.381 113L388.783 1.60999H400.475L450.877 113H437.447L424.491 83.77H364.293L351.179 113H338.381ZM369.191 72.552H419.593L394.471 16.146L369.191 72.552ZM472.849 25.942L465.107 17.41C477.957 6.13933 492.546 0.503998 508.873 0.503998C520.67 0.503998 530.203 3.24266 537.471 8.72C544.739 14.092 548.373 21.1493 548.373 29.892V30.208C548.373 36.6333 546.477 42.1633 542.685 46.798C538.893 51.3273 533.363 54.6453 526.095 56.752C533.679 58.332 539.683 61.4393 544.107 66.074C548.636 70.6033 550.901 76.2387 550.901 82.98V83.138C550.901 92.302 546.951 99.886 539.051 105.89C531.151 111.894 520.565 114.896 507.293 114.896C490.334 114.896 475.745 109.682 463.527 99.254L470.953 90.248C482.118 99.2013 494.284 103.678 507.451 103.678C516.509 103.678 523.83 101.729 529.413 97.832C535.101 93.8293 537.945 88.826 537.945 82.822V82.506C537.945 76.0807 535.206 71.1827 529.729 67.812C524.251 64.4413 516.509 62.756 506.503 62.756H487.543V51.854H506.661C515.193 51.854 522.092 50.0633 527.359 46.482C532.731 42.9007 535.417 37.8447 535.417 31.314V31.156C535.417 25.3627 532.941 20.6753 527.991 17.094C523.145 13.5127 516.667 11.722 508.557 11.722C495.706 11.722 483.803 16.462 472.849 25.942ZM565.506 113L615.908 1.60999H627.6L678.002 113H664.572L651.616 83.77H591.418L578.304 113H565.506ZM596.316 72.552H646.718L621.596 16.146L596.316 72.552ZM714.99 113V13.934H677.702V2.39999H764.76V13.934H727.472V113H714.99ZM787.453 113V2.39999H799.935V42.374H828.533C841.173 42.374 851.285 45.4287 858.869 51.538C866.453 57.542 870.245 65.9687 870.245 76.818V77.134C870.245 88.4047 866.189 97.2 858.079 103.52C849.968 109.84 839.54 113 826.795 113H787.453ZM799.935 101.466H827.269C836.327 101.466 843.648 99.3067 849.231 94.988C854.813 90.6693 857.605 84.876 857.605 77.608V77.292C857.605 69.8133 854.919 64.02 849.547 59.912C844.28 55.804 837.117 53.75 828.059 53.75H799.935V101.466ZM940.831 25.942L933.089 17.41C945.94 6.13933 960.528 0.503998 976.855 0.503998C988.652 0.503998 998.185 3.24266 1005.45 8.72C1012.72 14.092 1016.36 21.1493 1016.36 29.892V30.208C1016.36 36.6333 1014.46 42.1633 1010.67 46.798C1006.88 51.3273 1001.35 54.6453 994.077 56.752C1001.66 58.332 1007.67 61.4393 1012.09 66.074C1016.62 70.6033 1018.88 76.2387 1018.88 82.98V83.138C1018.88 92.302 1014.93 99.886 1007.03 105.89C999.133 111.894 988.547 114.896 975.275 114.896C958.316 114.896 943.728 109.682 931.509 99.254L938.935 90.248C950.1 99.2013 962.266 103.678 975.433 103.678C984.492 103.678 991.812 101.729 997.395 97.832C1003.08 93.8293 1005.93 88.826 1005.93 82.822V82.506C1005.93 76.0807 1003.19 71.1827 997.711 67.812C992.234 64.4413 984.492 62.756 974.485 62.756H955.525V51.854H974.643C983.175 51.854 990.074 50.0633 995.341 46.482C1000.71 42.9007 1003.4 37.8447 1003.4 31.314V31.156C1003.4 25.3627 1000.92 20.6753 995.973 17.094C991.128 13.5127 984.65 11.722 976.539 11.722C963.688 11.722 951.786 16.462 940.831 25.942ZM1044.67 113V2.39999H1091.75C1104.28 2.39999 1113.92 5.66533 1120.66 12.196C1125.4 17.0413 1127.77 22.94 1127.77 29.892V30.208C1127.77 42.216 1121.93 50.748 1110.24 55.804C1126.04 60.3333 1133.94 69.234 1133.94 82.506V82.822C1133.94 92.1967 1130.3 99.57 1123.03 104.942C1115.77 110.314 1106.02 113 1093.8 113H1044.67ZM1115.13 31.946V31.63C1115.13 26.0473 1112.97 21.676 1108.66 18.516C1104.44 15.2507 1098.44 13.618 1090.64 13.618H1056.99V51.696H1089.7C1097.49 51.696 1103.65 50.0107 1108.18 46.64C1112.82 43.2693 1115.13 38.3713 1115.13 31.946ZM1121.3 82.032V81.716C1121.3 75.6067 1118.77 70.9193 1113.71 67.654C1108.76 64.3887 1101.49 62.756 1091.91 62.756H1056.99V101.782H1094.12C1102.65 101.782 1109.29 100.044 1114.03 96.568C1118.87 93.092 1121.3 88.2467 1121.3 82.032ZM1250.03 98.148C1239.39 109.313 1225.86 114.896 1209.42 114.896C1192.99 114.896 1179.51 109.366 1168.98 98.306C1158.44 87.1407 1153.18 73.7107 1153.18 58.016V57.7C1153.18 42.0053 1158.49 28.5753 1169.13 17.41C1179.77 6.13933 1193.31 0.503998 1209.74 0.503998C1226.17 0.503998 1239.65 6.08667 1250.19 17.252C1260.72 28.312 1265.99 41.6893 1265.99 57.384V57.7C1265.99 73.3947 1260.67 86.8773 1250.03 98.148ZM1178.46 90.09C1186.78 98.938 1197.2 103.362 1209.74 103.362C1222.27 103.362 1232.6 98.9907 1240.71 90.248C1248.92 81.5053 1253.03 70.7613 1253.03 58.016V57.7C1253.03 44.9547 1248.87 34.158 1240.55 25.31C1232.33 16.462 1221.96 12.038 1209.42 12.038C1196.89 12.038 1186.51 16.4093 1178.3 25.152C1170.19 33.8947 1166.13 44.6387 1166.13 57.384V57.7C1166.13 70.4453 1170.24 81.242 1178.46 90.09ZM1292.31 113V2.39999H1304.79V51.538H1368.63V2.39999H1381.11V113H1368.63V63.23H1304.79V113H1292.31ZM1504.31 98.148C1493.67 109.313 1480.14 114.896 1463.7 114.896C1447.27 114.896 1433.79 109.366 1423.26 98.306C1412.72 87.1407 1407.46 73.7107 1407.46 58.016V57.7C1407.46 42.0053 1412.78 28.5753 1423.41 17.41C1434.05 6.13933 1447.59 0.503998 1464.02 0.503998C1480.45 0.503998 1493.94 6.08667 1504.47 17.252C1515 28.312 1520.27 41.6893 1520.27 57.384V57.7C1520.27 73.3947 1514.95 86.8773 1504.31 98.148ZM1432.74 90.09C1441.06 98.938 1451.49 103.362 1464.02 103.362C1476.56 103.362 1486.88 98.9907 1494.99 90.248C1503.2 81.5053 1507.31 70.7613 1507.31 58.016V57.7C1507.31 44.9547 1503.15 34.158 1494.83 25.31C1486.61 16.462 1476.24 12.038 1463.7 12.038C1451.17 12.038 1440.79 16.4093 1432.58 25.152C1424.47 33.8947 1420.41 44.6387 1420.41 57.384V57.7C1420.41 70.4453 1424.52 81.242 1432.74 90.09ZM1546.59 113V2.39999H1559.08V50.906H1577.09L1623.22 2.39999H1639.5L1587.67 55.646L1641.87 113H1625.28L1577.56 62.124H1559.08V113H1546.59Z" fill="#E4E4E4"/>
</svg>
